X: 1
T: Lanigan's Ball
R: jig
M: 6/8
L: 1/8
K: Emin
E2F G2A|B2A B^cd|DED F2G|AdB AFD|
E2F G2A|B2A B^cd|edB cBA|BGE E3:|
|:e2f g2e|fag fed|e2f g2e|fdB B2B|
e2f g2e|fag fed|edB cBA|BGE E3:|


Tune 264	Setting 13003

